germany/municipalities/07235104.svg

<?xml version="1.0" encoding="UTF-8" standalone="no"?>
<!-- Created with Inkscape (http://www.inkscape.org/) -->

<svg
   xmlns:dc="http://purl.org/dc/elements/1.1/"
   xmlns:cc="http://creativecommons.org/ns#"
   xmlns:rdf="http://www.w3.org/1999/02/22-rdf-syntax-ns#"
   xmlns:svg="http://www.w3.org/2000/svg"
   xmlns="http://www.w3.org/2000/svg"
   xmlns:sodipodi="http://sodipodi.sourceforge.net/DTD/sodipodi-0.dtd"
   xmlns:inkscape="http://www.inkscape.org/namespaces/inkscape"
   width="132.75891mm"
   height="158.65758mm"
   viewBox="0 0 132.75891 158.65758"
   version="1.1"
   id="svg865"
   inkscape:version="0.92.5 (2060ec1f9f, 2020-04-08)"
   sodipodi:docname="DEU Palzem COA.svg">
  <defs
     id="defs859">
    <inkscape:path-effect
       effect="spiro"
       id="path-effect2569"
       is_visible="true" />
    <inkscape:path-effect
       effect="spiro"
       id="path-effect3644"
       is_visible="true" />
    <inkscape:path-effect
       effect="spiro"
       id="path-effect3636"
       is_visible="true" />
    <inkscape:path-effect
       effect="spiro"
       id="path-effect3544"
       is_visible="true" />
    <inkscape:path-effect
       effect="spiro"
       id="path-effect3466"
       is_visible="true" />
    <inkscape:path-effect
       effect="spiro"
       id="path-effect3544-2"
       is_visible="true" />
    <inkscape:path-effect
       effect="spiro"
       id="path-effect3644-8"
       is_visible="true" />
    <inkscape:path-effect
       effect="spiro"
       id="path-effect3644-3"
       is_visible="true" />
    <inkscape:path-effect
       effect="spiro"
       id="path-effect3636-0"
       is_visible="true" />
    <inkscape:path-effect
       effect="spiro"
       id="path-effect1727-0-1"
       is_visible="true" />
    <inkscape:path-effect
       effect="spiro"
       id="path-effect1731-8-3"
       is_visible="true" />
    <inkscape:path-effect
       effect="spiro"
       id="path-effect1727-3"
       is_visible="true" />
    <inkscape:path-effect
       effect="spiro"
       id="path-effect1731-7"
       is_visible="true" />
    <inkscape:path-effect
       effect="spiro"
       id="path-effect841-8"
       is_visible="true" />
    <inkscape:path-effect
       effect="spiro"
       id="path-effect2569-1"
       is_visible="true" />
    <inkscape:path-effect
       effect="spiro"
       id="path-effect2569-1-7"
       is_visible="true" />
  </defs>
  <sodipodi:namedview
     id="base"
     pagecolor="#ffffff"
     bordercolor="#666666"
     borderopacity="1.0"
     inkscape:pageopacity="0.0"
     inkscape:pageshadow="2"
     inkscape:zoom="1.3224365"
     inkscape:cx="250.88297"
     inkscape:cy="299.82535"
     inkscape:document-units="mm"
     inkscape:current-layer="layer1"
     showgrid="false"
     inkscape:window-width="1920"
     inkscape:window-height="1046"
     inkscape:window-x="-11"
     inkscape:window-y="-11"
     inkscape:window-maximized="1"
     fit-margin-top="0"
     fit-margin-left="0"
     fit-margin-right="0"
     fit-margin-bottom="0"
     inkscape:snap-global="true"
     inkscape:snap-midpoints="true"
     inkscape:snap-smooth-nodes="true" />
  <metadata
     id="metadata862">
    <rdf:RDF>
      <cc:Work
         rdf:about="">
        <dc:format>image/svg+xml</dc:format>
        <dc:type
           rdf:resource="http://purl.org/dc/dcmitype/StillImage" />
        <dc:title></dc:title>
      </cc:Work>
    </rdf:RDF>
  </metadata>
  <g
     inkscape:label="Ebene 1"
     inkscape:groupmode="layer"
     id="layer1"
     transform="translate(12.108223,171.14349)">
    <path
       style="fill:#009a00;fill-opacity:1;fill-rule:evenodd;stroke:none;stroke-width:2.11666656;stroke-linecap:round;stroke-linejoin:round;stroke-miterlimit:4;stroke-dasharray:none;stroke-opacity:1"
       inkscape:connector-curvature="0"
       d="m 119.59235,-170.08516 -0.29864,94.538465 c -1.45405,37.54097 -30.182655,61.981429 -65.022465,62.00245 -34.808475,-0.0461 -63.547865,-24.497199 -65.022485,-62.00245 l -0.29865,-94.538465 h 65.319566 z"
       id="path10563-0-6-2-6-5-2"
       sodipodi:nodetypes="ccccccc" />
    <path
       style="opacity:1;fill:#ffffff;fill-opacity:1;fill-rule:evenodd;stroke:none;stroke-width:7.99999952;stroke-linecap:round;stroke-linejoin:round;stroke-miterlimit:4;stroke-dasharray:none;stroke-opacity:1;paint-order:fill markers stroke"
       d="M 4 4 L 4.9238281 296.43555 L 496.8418 296.43555 L 497.76562 4 L 250.87695 4 L 4 4 z "
       transform="matrix(0.26458333,0,0,0.26458333,-12.108223,-171.14349)"
       id="rect2291" />
    <path
       inkscape:connector-curvature="0"
       style="opacity:1;fill:none;fill-opacity:1;fill-rule:evenodd;stroke:#000000;stroke-width:1.32291667;stroke-linecap:round;stroke-linejoin:round;stroke-miterlimit:4;stroke-dasharray:none;stroke-opacity:1;paint-order:fill markers stroke"
       d="m -11.04989,-170.08516 0.24443,77.373576 h 130.15329 l 0.24443,-77.373576 H 54.269636 Z"
       id="rect2291-1" />
    <path
       style="opacity:1;fill:#ff0000;fill-opacity:1;fill-rule:evenodd;stroke:#000000;stroke-width:5;stroke-linecap:round;stroke-linejoin:round;stroke-miterlimit:4;stroke-dasharray:none;stroke-opacity:1;paint-order:fill markers stroke"
       d="M 218.87109 4 L 218.87109 118.20703 L 4.3613281 118.20703 L 4.5625 182.22852 L 218.87109 182.22852 L 218.87109 296.43555 L 282.89453 296.43555 L 282.89453 182.22852 L 497.20312 182.22852 L 497.4043 118.20703 L 282.89453 118.20703 L 282.89453 4 L 250.87695 4 L 218.87109 4 z "
       transform="matrix(0.26458333,0,0,0.26458333,-12.108223,-171.14349)"
       id="rect2324" />
    <path
       style="fill:#ffffff;stroke:#000000;stroke-width:5;stroke-linecap:round;stroke-linejoin:round;stroke-miterlimit:4;stroke-dasharray:none;stroke-opacity:1"
       d="M 250.88281 329.73633 C 234.46986 329.7365 223.7604 348.43225 209.03906 355.68945 C 205.65186 357.35924 201.96214 358.33757 198.43945 359.68945 C 188.82979 363.37732 179.26508 367.56007 171.1582 373.90234 C 163.05248 380.24373 156.70286 388.50591 150.37109 396.61914 C 144.03932 404.73237 137.52676 412.89549 129.20117 418.94531 C 120.87558 424.99513 111.09803 428.6694 101.42578 432.18555 C 91.75352 435.7017 81.93537 439.18882 73.400391 444.93945 C 64.864181 450.69092 57.930848 458.49543 51.455078 466.49609 C 47.526972 471.34919 43.717022 476.31703 39.679688 481.07617 C 48.503719 495.77394 58.821117 509.25134 70.421875 521.39258 C 74.172813 516.91586 77.748786 512.27871 81.423828 507.73828 C 87.899587 499.73761 94.832934 491.93311 103.36914 486.18164 C 111.90412 480.431 121.72227 476.94389 131.39453 473.42773 C 141.06678 469.91159 150.84433 466.23732 159.16992 460.1875 C 167.49551 454.13768 174.00808 445.97456 180.33984 437.86133 C 186.67161 429.7481 193.02123 421.48591 201.12695 415.14453 C 209.23384 408.80225 218.79854 404.6195 228.4082 400.93164 C 235.92373 398.04744 242.83238 392.08984 250.88281 392.08984 C 258.93324 392.08984 265.8419 398.04744 273.35742 400.93164 C 282.96708 404.6195 292.53179 408.80225 300.63867 415.14453 C 308.74439 421.48591 315.09401 429.7481 321.42578 437.86133 C 327.75755 445.97456 334.27207 454.13768 342.59766 460.1875 C 350.92326 466.23732 360.69884 469.91159 370.37109 473.42773 C 380.04335 476.94389 389.86346 480.431 398.39844 486.18164 C 406.93465 491.93311 413.86603 499.73761 420.3418 507.73828 C 424.04024 512.30763 427.63885 516.97543 431.41602 521.47852 C 443.0158 509.33578 453.33136 495.85526 462.15039 481.15039 C 458.08969 476.36876 454.25904 471.37438 450.31055 466.49609 C 443.83478 458.49543 436.90145 450.69092 428.36523 444.93945 C 419.83026 439.18882 410.01209 435.7017 400.33984 432.18555 C 390.66759 428.6694 380.89201 424.99513 372.56641 418.94531 C 364.24082 412.89549 357.7263 404.73237 351.39453 396.61914 C 345.06276 388.50591 338.71314 380.24373 330.60742 373.90234 C 322.50054 367.56007 312.93583 363.37732 303.32617 359.68945 C 299.80347 358.33757 296.11513 357.35904 292.72852 355.68945 C 278.00682 348.43172 267.29631 329.73616 250.88281 329.73633 z "
       transform="matrix(0.26458333,0,0,0.26458333,-12.108223,-171.14349)"
       id="path2567" />
    <path
       style="fill:none;fill-rule:evenodd;stroke:#000000;stroke-width:2.11666656;stroke-linecap:round;stroke-linejoin:round;stroke-miterlimit:4;stroke-dasharray:none;stroke-opacity:1"
       inkscape:connector-curvature="0"
       d="m 119.59235,-170.08516 -0.29864,94.538465 c -1.45405,37.54097 -30.182657,61.981429 -65.022465,62.00245 -34.808476,-0.0461 -63.5478643,-24.497199 -65.022485,-62.00245 l -0.29865,-94.538465 h 65.319565 z"
       id="path10563-0-6-2-6-5"
       sodipodi:nodetypes="ccccccc" />
  </g>
</svg>

<svg xmlns="http://www.w3.org/2000/svg" width="501.766" height="599.651" viewBox="0 0 132.759 158.658"><path style="fill:#009a00;fill-opacity:1;fill-rule:evenodd;stroke:none;stroke-width:2.11666656;stroke-linecap:round;stroke-linejoin:round;stroke-miterlimit:4;stroke-dasharray:none;stroke-opacity:1" d="m119.592-170.085-.298 94.538C117.84-38.006 89.11-13.565 54.27-13.544 19.463-13.59-9.277-38.041-10.75-75.547l-.299-94.538h65.32z" transform="translate(12.108 171.143)"/><path style="opacity:1;fill:#fff;fill-opacity:1;fill-rule:evenodd;stroke:none;stroke-width:7.99999952;stroke-linecap:round;stroke-linejoin:round;stroke-miterlimit:4;stroke-dasharray:none;stroke-opacity:1;paint-order:fill markers stroke" d="m4 4 .924 292.436h491.918L497.766 4H4z" transform="scale(.26458)"/><path style="opacity:1;fill:none;fill-opacity:1;fill-rule:evenodd;stroke:#000;stroke-width:1.32291667;stroke-linecap:round;stroke-linejoin:round;stroke-miterlimit:4;stroke-dasharray:none;stroke-opacity:1;paint-order:fill markers stroke" d="m-11.05-170.085.245 77.373h130.153l.244-77.373H54.27z" transform="translate(12.108 171.143)"/><path style="opacity:1;fill:red;fill-opacity:1;fill-rule:evenodd;stroke:#000;stroke-width:5;stroke-linecap:round;stroke-linejoin:round;stroke-miterlimit:4;stroke-dasharray:none;stroke-opacity:1;paint-order:fill markers stroke" d="M218.871 4v114.207H4.361l.202 64.022H218.87v114.207h64.024V182.229h214.308l.201-64.022h-214.51V4h-64.023z" transform="scale(.26458)"/><path style="fill:#fff;stroke:#000;stroke-width:5;stroke-linecap:round;stroke-linejoin:round;stroke-miterlimit:4;stroke-dasharray:none;stroke-opacity:1" d="M250.883 329.736c-16.413 0-27.123 18.696-41.844 25.953-3.387 1.67-7.077 2.649-10.6 4-9.61 3.688-19.174 7.871-27.28 14.213-8.107 6.342-14.456 14.604-20.788 22.717-6.332 8.113-12.844 16.276-21.17 22.326-8.325 6.05-18.103 9.724-27.775 13.24-9.672 3.517-19.49 7.004-28.026 12.754-8.536 5.752-15.47 13.556-21.945 21.557-3.928 4.853-7.738 9.821-11.775 14.58a228.688 228.688 0 0 0 30.742 40.317c3.75-4.477 7.327-9.114 11.002-13.655 6.476-8 13.409-15.805 21.945-21.556 8.535-5.751 18.353-9.238 28.026-12.754 9.672-3.516 19.45-7.19 27.775-13.24 8.326-6.05 14.838-14.213 21.17-22.327 6.332-8.113 12.681-16.375 20.787-22.716 8.107-6.343 17.672-10.525 27.281-14.213 7.516-2.885 14.424-8.842 22.475-8.842 8.05 0 14.959 5.957 22.474 8.842 9.61 3.688 19.175 7.87 27.282 14.213 8.105 6.34 14.455 14.603 20.787 22.716 6.332 8.114 12.846 16.277 21.172 22.327 8.325 6.05 18.1 9.724 27.773 13.24 9.672 3.516 19.492 7.003 28.027 12.754 8.537 5.751 15.468 13.556 21.944 21.556 3.698 4.57 7.297 9.237 11.074 13.74a228.337 228.337 0 0 0 30.734-40.328c-4.06-4.781-7.891-9.776-11.84-14.654-6.475-8-13.409-15.805-21.945-21.557-8.535-5.75-18.353-9.237-28.025-12.753-9.672-3.517-19.448-7.19-27.774-13.24-8.325-6.05-14.84-14.214-21.171-22.327-6.332-8.113-12.682-16.375-20.788-22.717-8.106-6.342-17.671-10.525-27.28-14.213-3.524-1.351-7.212-2.33-10.598-4-14.722-7.257-25.433-25.953-41.846-25.953z" transform="scale(.26458)"/><path style="fill:none;fill-rule:evenodd;stroke:#000;stroke-width:2.11666656;stroke-linecap:round;stroke-linejoin:round;stroke-miterlimit:4;stroke-dasharray:none;stroke-opacity:1" d="m119.592-170.085-.298 94.538C117.84-38.006 89.11-13.565 54.27-13.544 19.463-13.59-9.277-38.041-10.75-75.547l-.299-94.538h65.32z" transform="translate(12.108 171.143)"/></svg>
